src/assets/icons/phone.svg

<svg width="25" height="25" viewBox="0 0 25 25" fill="none" xmlns="http://www.w3.org/2000/svg">
<path fill-rule="evenodd" clip-rule="evenodd" d="M10.5422 9.96877C10.8204 9.7833 10.9875 9.47107 10.9875 9.13672V5.13672C10.9875 3.47986 9.64434 2.13672 7.98749 2.13672H3.98749C3.4352 2.13672 2.98749 2.58443 2.98749 3.13672C2.98749 13.0778 12.0464 22.1367 21.9875 22.1367C22.5398 22.1367 22.9875 21.689 22.9875 21.1367V17.1367C22.9875 15.4799 21.6443 14.1367 19.9875 14.1367H15.9875C15.6531 14.1367 15.3409 14.3038 15.1554 14.582L13.2501 17.44C11.1749 16.0982 9.35674 14.3259 7.95823 12.2857L7.68417 11.8741L10.5422 9.96877ZM16.5227 16.1367H19.9875C20.5398 16.1367 20.9875 16.5844 20.9875 17.1367V20.102C19.0502 19.968 17.1596 19.4499 15.3962 18.6283L14.9916 18.4333L16.5227 16.1367ZM5.02216 4.13672H7.98749C8.53977 4.13672 8.98749 4.58443 8.98749 5.13672V8.60153L6.69087 10.1326C5.75631 8.25517 5.16652 6.22298 5.02216 4.13672Z" fill="#3B3B3B"/>
</svg>

<svg xmlns="http://www.w3.org/2000/svg" width="25" height="25" fill="none" xmlns:v="https://vecta.io/nano"><path fill-rule="evenodd" d="M10.542 9.969a1 1 0 0 0 .445-.832v-4a3 3 0 0 0-3-3h-4a1 1 0 0 0-1 1c0 9.941 9.059 19 19 19a1 1 0 0 0 1-1v-4a3 3 0 0 0-3-3h-4a1 1 0 0 0-.832.445L13.25 17.44a18.89 18.89 0 0 1-5.292-5.154l-.274-.412 2.858-1.905zm5.981 6.168h3.465a1 1 0 0 1 1 1v2.965c-1.937-.134-3.828-.652-5.591-1.474l-.405-.195 1.531-2.297zm-11.501-12h2.965a1 1 0 0 1 1 1v3.465l-2.297 1.531c-.935-1.877-1.524-3.91-1.669-5.996z" fill="#3b3b3b"/></svg>
